svg/furkot/freepik/wine.svg

<svg viewBox="0 0 512 512" xmlns="http://www.w3.org/2000/svg"><path d="m308.181 0-6.314 2.944c-29.995 13.909-57.131 35.755-78.379 63.147-56.363 72.533-74.069 187.989-19.243 244.821l-97.365 125.355c-28.245-18.902-57.856-29.142-82.645-29.184l153.813 119.509c-6.144-23.979-23.381-50.176-48.683-72.832l97.366-125.355c68.65 39.083 176.128-6.613 232.49-79.189 21.248-27.392 35.755-59.051 41.771-91.563l1.28-6.869zm148.651 211.243-257.365-40.875c7.509-32.384 22.186-64.555 42.112-90.197 17.578-22.614 39.466-40.918 63.701-53.376l171.776 133.461c-3.968 17.621-10.965 34.773-20.224 50.987z"/></svg>

<svg xmlns="http://www.w3.org/2000/svg" viewBox="0 0 512 512"><path d="M308.181 0L301.867 2.944C271.872 16.853 244.736 38.699 223.488 66.091 167.125 138.624 149.419 254.08 204.245 310.912L106.88 436.267C78.635 417.365 49.024 407.125 24.235 407.083L178.048 526.592C171.904 502.613 154.667 476.416 129.365 453.76L226.731 328.405C295.381 367.488 402.859 321.792 459.221 249.216 480.469 221.824 494.976 190.165 500.992 157.653L502.272 150.784 308.181 0ZM456.832 211.243L199.467 170.368C206.976 137.984 221.653 105.813 241.579 80.171 259.157 57.557 281.045 39.253 305.28 26.795L477.056 160.256C473.088 177.877 466.091 195.029 456.832 211.243Z"/></svg>
